X: 5145
T: Brig O' Perth, The
R: strathspey
M: 4/4
K: Amixolydian
a|:AAeA cAfe|ceAe aec2|Aded ceAc|BdGB gd B2:|
Aaea|caea|Aaef eA c2|Aaea caef|gage dG B2|
Aaea caea|Aaef eA c2|afge fdec|BdGB gd B||

